X:1
T:Title
L:1/8
Q:1/4=100
M:4/4
K:Eb
V:1 treble nm="Grand Piano"
V:1
 C2 G2 C2 GG | G2 GF GFED | CC F2 D2 GG | C4 =B,4 | C2 G2 C2 G2 | A2 cB cBAG | FFBB A2 F2 | G8 | %8
w: ????~???? * * * *||||||||
 G2 c2 G2 d2- | d c2 B BA A2 | F2 B2 F2 cB | B2 AB A2 G2 | FGAG GFFE | E2 DC DC =B,2 | FGAG GFFE | %15
w: |||||||
 E2 DC DC =B,2 | EE E2 C2 C2 | D2 EE F2 F2 | F2 F2 F2 D2 | E2 FF G2 G2 | cBBA AGGF | FEED G2 ED | %22
w: |||||||
 CC F2 D2 GG | C4[K:bass] =B,4- | B,G,ED[K:treble] DCC=B, | C8 |] %26
w: ||||

